public/logo192.svg

<svg width="64" height="53" viewBox="0 0 64 53" fill="none" xmlns="http://www.w3.org/2000/svg">
<path d="M46.8291 52.2579H22.4707C21.0018 52.2579 20.0801 50.6721 20.8071 49.3958L33.0208 27.9541C33.3419 27.3904 33.3557 26.7025 33.0574 26.1264L20.9798 2.79465C20.3115 1.50349 21.2695 -0.0321512 22.7231 0.000512282L46.8301 0.542243C47.4919 0.557116 48.0992 0.912874 48.4357 1.48297L62.9406 26.0524C63.3027 26.6658 63.2943 27.4295 62.9189 28.0349L48.456 51.3525C48.1069 51.9155 47.4915 52.2579 46.8291 52.2579Z" fill="url(#paint0_linear)"/>
<path d="M1.04775 26.3953L13.9485 4.03392C14.434 3.19246 15.6442 3.18023 16.1465 4.01172L23.9072 16.8569C24.1397 17.2418 24.1525 17.7208 23.9409 18.1176L19.5027 26.4393C19.2994 26.8203 19.3027 27.2783 19.5113 27.6565L23.914 35.6363C24.1408 36.0474 24.1236 36.5497 23.8693 36.9443L16.133 48.949C15.6225 49.7411 14.4592 49.7259 13.9696 48.9208L1.06276 27.6963C0.820511 27.2979 0.814755 26.7991 1.04775 26.3953Z" fill="url(#paint1_linear)"/>
<defs>
<linearGradient id="paint0_linear" x1="-1.08618" y1="-30.9422" x2="105.334" y2="10.7176" gradientUnits="userSpaceOnUse">
<stop stop-color="#4654D3"/>
<stop offset="1" stop-color="#C51593"/>
</linearGradient>
<linearGradient id="paint1_linear" x1="-1.08618" y1="-30.9422" x2="105.334" y2="10.7176" gradientUnits="userSpaceOnUse">
<stop stop-color="#4654D3"/>
<stop offset="1" stop-color="#C51593"/>
</linearGradient>
</defs>
</svg>

<svg xmlns="http://www.w3.org/2000/svg" width="64" height="53" fill="none" xmlns:v="https://vecta.io/nano"><path d="M46.83 52.258H22.47c-1.47 0-2.39-1.586-1.664-2.862L33.02 27.954c.32-.564.335-1.252.037-1.828L20.98 2.795c-.668-1.29.3-2.827 1.743-2.794L46.83.542c.662.015 1.27.37 1.606.94l14.505 24.57c.362.613.354 1.377-.022 1.983L48.456 51.353c-.35.563-.965.905-1.627.905z" fill="url(#A)"/><path d="M1.048 26.395l12.9-22.36a1.28 1.28 0 0 1 2.198-.022l7.76 12.845c.233.385.245.864.034 1.26l-4.438 8.322c-.203.38-.2.84.01 1.217l4.403 7.98c.227.41.2.913-.045 1.308L16.133 48.95a1.28 1.28 0 0 1-2.163-.028L1.063 27.696c-.242-.398-.248-.897-.015-1.3z" fill="url(#A)"/><defs><linearGradient id="A" x1="-1.086" y1="-30.942" x2="105.334" y2="10.718" gradientUnits="userSpaceOnUse"><stop stop-color="#4654d3"/><stop offset="1" stop-color="#c51593"/></linearGradient></defs></svg>
